!!!SOCIAL_FUNCTION: miscellaneous dance songs
!!!PDT:	1943
!!!LING_GROUP: Muskogean
!!!LANG: Non-Tone
Specific Region: Oklahoma, California, Mississippi, Louisiana, Texas, Alabama
!!!REG: Southeast
!!!COM: Anon.
!!!OTL: Terrapin Dance Song (a)
!!!ODT: <1933//
!!!MPN: Lapintabeseihoke [Kills it Himself, Sidney Wesley]
!!!MLC: Philadelphia, Mississippi, United States of America
!! Song was recorded in January 1933.
!!!AGN: monody
!!!AMT: irregular
!!!RWG: Transcribed pitches, durations, and meters are only approximate.
**kern
*ICvox
*Imale
*clefF4
*k[f#c#g#d#a#]
*M2/4
*MM132
*[A,A]
*>A
=1-
2d#
*M3/4
=2
4c#
8B
8B
8c#
8B
*M5/8
=3
2B
16r
16B
*M2/4
=4
8G#
8G#
4G#
=5
8F#
8D#
4D#
=6
4r
4B
*M3/4
=7
8B
8B
8B
8c#
8B
*M5/8
=8
2B
16r
16B
*M2/4
=9
8G#
8G#
4G#
*M3/4
=10
8F#
8D#
8D#
8r
4d#
=11
4d#
8B
8B
4c#
*M5/8
=12
2B
16r
16B
*M2/4
=13
8G#
8G#
4G#
*M3/4
=14
8F#
8D#
8D#
8r
*MM152
4G#
=15
4G#
8G#
8F#
8c#
8B
*M5/8
=16
2B
16r
!! ritard
16B
*M2/4
=17
8G#
8G#
4G#
=18
8F#
8D#
8D#
8r
==:|!
*-
!!!CNT: Choctaw
!!!TXO: Choctaw
!!!OCY: United States
!!!OCL: Frances Densmore
!!!YOR: Frances Densmore, "Choctaw Music"
!!!YOR: Bulletin 136, page 172, No. 57
!!!PPR: Smithsonian Institution, Bureau of American Ethnology
!!!PPR: Government Printing Office
!!!PDT: 1943
!!!PPP: Washington, DC, United States of America
!!!YEC: Electronic Copyright 2000 David Huron
!!!YER: August 2000
!!!YEN: United States of America
!!!ENC: David Huron
!!!RDT: August 30, 2000
!!!EEV: Release 1.0
!!!AIN: vox
